X: 21757
T: King Of The Fairies
R: hornpipe
M: 4/4
K: Edorian
B,2|:E^DEF GFGA|B2B2 G3A|B2E2 EFGE|FGFE D2B,2|
E^DEF GFGA|BAGB d2 d/c/=c|B2E2 GFE^D|1 E2E^D E2B,2:|2 E2E^D E2d2||
e2e2 Bdef|gagf e3f|e2B2 BABc|dedc Bcd/c/B|
e2B2 Bdef|gagf e3f|gfe/f/g fed/e/f|e2ed e2ef|
g2ge f2fd|edBc d3e|dBAF GABc|dBAF GFED|
B,2E2 EFGA|B2e2 edef|e2B2 BAGF|E2E^D E4||

